packages/icons/brands/CoinMarketCap.svg

<svg width="24" height="24" viewBox="0 0 24 24" xmlns="http://www.w3.org/2000/svg">
<g>
        <g clip-path="url(#clip0_1867_25263)">
            <rect x="0.5" width="24" height="24" rx="12" fill="black" />
            <path
                d="M18.4165 13.5659C18.1332 13.7364 17.8026 13.7674 17.5507 13.6279C17.2358 13.4419 17.0469 13.0233 17.0469 12.4496V10.6977C17.0469 9.86047 16.7163 9.25581 16.1496 9.10077C15.1893 8.8217 14.4651 9.98449 14.1975 10.4186L12.4973 13.1008V9.79845C12.4815 9.03876 12.2297 8.58915 11.7574 8.44961C11.4425 8.35659 10.9702 8.4031 10.5137 9.08527L6.71972 15.0698C6.21595 14.124 5.94833 13.0698 5.94833 12C5.94833 8.3876 8.89221 5.45736 12.4973 5.45736C16.1024 5.45736 19.0462 8.3876 19.0462 12V12.0155V12.031C19.0777 12.7287 18.8573 13.2868 18.4165 13.5659ZM20.4946 12V11.9845V11.969C20.4788 7.58139 16.8895 4 12.4973 4C8.08933 4 4.5 7.5814 4.5 12C4.5 16.4031 8.08933 20 12.4973 20C14.5281 20 16.4487 19.2403 17.9285 17.8605C18.2276 17.5814 18.2434 17.1318 17.96 16.8372C17.6924 16.5426 17.2358 16.5271 16.9367 16.7907C16.9367 16.7907 16.9367 16.7907 16.921 16.8062C15.7245 17.9225 14.1188 18.5581 12.4658 18.5581C10.5295 18.5581 8.79776 17.7209 7.60131 16.3876L11.0175 10.9922V13.4884C11.0175 14.6822 11.4898 15.0698 11.8833 15.1783C12.2769 15.2868 12.8751 15.2093 13.5206 14.2016L15.3939 11.2093C15.4569 11.1163 15.5041 11.0233 15.5671 10.9612V12.4806C15.5671 13.5969 16.0237 14.4961 16.8108 14.9302C17.5192 15.3333 18.4165 15.2868 19.1564 14.8372C20.0695 14.2481 20.5575 13.2248 20.4946 12Z"
                fill="white"
            />
        </g>
        <defs>
            <clipPath id="clip0_1867_25263">
                <rect width="24" height="24" fill="white" transform="translate(0.5)" />
            </clipPath>
        </defs>
    </g>
</svg>

<svg xmlns="http://www.w3.org/2000/svg" viewBox="0 0 24 24">
    <g clip-path="url(#CoinMarketCap_svg__a)">
        <rect width="24" height="24" x=".5" rx="12"/>
        <path fill="#fff" d="M18.416 13.566c-.283.17-.613.201-.865.062-.315-.186-.504-.605-.504-1.178v-1.752c0-.838-.33-1.442-.897-1.597-.96-.28-1.685.883-1.952 1.318l-1.7 2.682V9.798c-.016-.76-.268-1.209-.74-1.348-.315-.093-.788-.047-1.244.635L6.72 15.07c-.504-.946-.772-2-.772-3.07 0-3.612 2.944-6.543 6.55-6.543 3.604 0 6.548 2.93 6.548 6.543v.031c.032.698-.189 1.256-.63 1.535ZM20.495 12v-.031C20.479 7.581 16.89 4 12.497 4 8.09 4 4.5 7.581 4.5 12c0 4.403 3.59 8 7.997 8a7.92 7.92 0 0 0 5.431-2.14.708.708 0 0 0 .032-1.023.73.73 0 0 0-1.023-.046l-.016.015a6.56 6.56 0 0 1-4.455 1.752 6.51 6.51 0 0 1-4.865-2.17l3.417-5.396v2.496c0 1.194.472 1.582.865 1.69.394.109.992.031 1.638-.976l1.873-2.993c.063-.093.11-.186.173-.248v1.52c0 1.116.457 2.015 1.244 2.45.708.402 1.605.356 2.345-.094.914-.589 1.402-1.612 1.339-2.837Z"/>
    </g>
    <defs>
        <clipPath id="CoinMarketCap_svg__a">
            <path fill="#fff" d="M0 0h24v24H0z" transform="translate(.5)"/>
        </clipPath>
    </defs>
</svg>
